icon/pk/paperclip.svg

<svg viewBox="0 0 48 48" fill="none" xmlns="http://www.w3.org/2000/svg" height="1em" width="1em">
  <path d="M26.1219 37.4352C26.1219 37.4352 37.4356 26.1215 40.264 23.293C43.0924 20.4646 44.5066 13.3935 39.5569 8.4438C34.6071 3.49405 27.5361 4.90826 24.7076 7.73669C21.8792 10.5651 7.02998 25.4144 5.61576 26.8286C4.20155 28.2428 2.08023 33.1925 6.32287 37.4352C10.5655 41.6778 15.5153 39.5565 16.9295 38.1423C18.3437 36.7281 33.9 21.1717 35.3142 19.7575C36.7285 18.3433 37.4356 14.8078 35.3142 12.6864C33.1929 10.5651 29.6574 11.2722 28.2432 12.6864C26.829 14.1007 14.8082 26.1215 14.8082 26.1215" stroke="black" stroke-width="4" stroke-linecap="round" stroke-linejoin="round"/>
</svg>

<svg width="48" height="48" fill="none" xmlns="http://www.w3.org/2000/svg"><path d="m26.122 37.435 14.142-14.142c2.828-2.828 4.243-9.9-.707-14.85-4.95-4.949-12.02-3.535-14.85-.706L5.617 26.829c-1.414 1.414-3.536 6.364.707 10.606 4.242 4.243 9.192 2.121 10.607.707l18.384-18.385c1.414-1.414 2.122-4.95 0-7.07-2.121-2.122-5.657-1.415-7.07 0L14.807 26.121" stroke="#000" stroke-width="4" stroke-linecap="round" stroke-linejoin="round"/></svg>
